X: 2
T: The Ace And Deuce Of Pipering
R: reel
M: 4/4
L: 1/8
K: Gmaj
|dc|:B2 cA BdcA|BdcA B2 AG|d2 ec d2 ec|dfec dcBA|
e2 fd edcB|Add^c d=cBA|BGcA B2 AG|FGAB cBcA|
G2 ge fdcA|FGAB cAFG|AGGF G2FG|1AGGF G2 dc:|2AGGF G2 GF||
|:G2=f2e2f2|G2 =fg fdcA|G2 g2 ^f2 g2|d2 ga gfdc|
A2 =f2 e2 f2|d^cde ^fd (3efg|af ge fd ed|(3ddd egfd cA|
G2 ge fdcA|FGAB cAFG|AGGF G2 FG|1AGGF G2GF:|2AGGF G4||


Tune 1107	Setting 1107

